svgs/thin/square-arrow-up.svg

<svg xmlns="http://www.w3.org/2000/svg" viewBox="0 0 448 512"><!--! Font Awesome Pro 6.3.0 by @fontawesome - https://fontawesome.com License - https://fontawesome.com/license (Commercial License) Copyright 2023 Fonticons, Inc. --><path d="M229.7 130.3c-3.125-3.125-8.188-3.125-11.31 0l-120 120C96.78 251.9 96 253.9 96 256s.7813 4.094 2.344 5.656c3.125 3.125 8.188 3.125 11.31 0L216 155.3V376c0 4.406 3.576 8 7.997 8S232 380.4 232 376V155.3l106.3 106.3c3.125 3.125 8.188 3.125 11.31 0s3.125-8.188 0-11.31L229.7 130.3zM384 32H64C28.65 32 0 60.65 0 96v320c0 35.35 28.65 64 64 64h320c35.35 0 64-28.65 64-64V96C448 60.65 419.3 32 384 32zM432 416c0 26.47-21.53 48-48 48H64c-26.47 0-48-21.53-48-48V96c0-26.47 21.53-48 48-48h320c26.47 0 48 21.53 48 48V416z"/></svg>

<svg xmlns="http://www.w3.org/2000/svg" viewBox="0 0 448 512"><!-- Font Awesome Pro 6.0.0-alpha2 by @fontawesome - https://fontawesome.com License - https://fontawesome.com/license (Commercial License) --><path d="M229.656 130.344C226.531 127.219 221.469 127.219 218.344 130.344L98.344 250.344C96.781 251.906 96 253.938 96 256S96.781 260.094 98.344 261.656C101.469 264.781 106.531 264.781 109.656 261.656L216 155.312V376C216 380.406 219.578 384 224 384S232 380.406 232 376V155.312L338.344 261.656C341.469 264.781 346.531 264.781 349.656 261.656S352.781 253.469 349.656 250.344L229.656 130.344ZM384 32H64C28.652 32 0 60.652 0 96V416C0 451.346 28.652 480 64 480H384C419.348 480 448 451.346 448 416V96C448 60.652 419.348 32 384 32ZM432 416C432 442.467 410.469 464 384 464H64C37.531 464 16 442.467 16 416V96C16 69.533 37.531 48 64 48H384C410.469 48 432 69.533 432 96V416Z"/></svg>
